!!!OTL: Die schoene Magdalena
!!!OTL-incipit:An einem schoenen Morgen
!!!ARE: Europa, Mitteleuropa, Deutschland / UdSSR, Ostpreussen
!!!YOR: 6, S. 74
!!    ????
!!!SCT: Q0125E
!!!TXL: @@DE
!!!YEM: Copyright 1995, estate of Helmut Schaffrath.
**kern	**text
*ICvox	*
*M6/8	*
*k[f#]	*
*G:	*
!LO:TX:a:t=13 Ostpreußen	!
{8d	An
=1	=1
4g	ei-
8g	-nem
(8bL	schö-
8a)	.
8gJ	-nen
=2	=2
4.dd^^	Mor-
8dd	-gen
8r}	.
{8dd	des
=3	=3
4dd^^	Sonn-
8dd	-tags
(8eeL	in
8dd)	-
8cc#J	der
=4	=4
4.dd	Früh
4r}	.
{8d	An
=5	=5
4g	ei-
8g	-nem
(8bL	schö-
8a)	.
8gJ	-nen
=6	=6
4.dd^^	Mor-
8dd	-gen
8r}	.
{8dd	des
=7	=7
4dd^^	Sonn-
8dd	-tags
(8eeL	in
8dd)	-
8cc#J	der
=8	=8
4.dd	Früh
4r}	.
{8dd	da
=9	=9
8gg'L	sah
8dd'	man
8dd'J	die
8dd/L	schö-
8b	-ne
8gJ	Mal-
=10	=10
8.aL	-lo-
16a}	-ne,
{8aJ	Mal-
8.f#L	-lo-
16e	-ne,
8dJ	Mal-
=11	=11
(4g	-lo-
8b)	.
(4a	.
8cc)	.
=12	=12
4.ee^^	.
8dd	-ne
8r}	.
{8cc	ʒum
=13	=13
(8bL	Gro-
8dd)	.
8gJ	-ßen
8aL	Tor
8cc	hin-
8f#J	-aus
=14	=14
4.g	gehn.
4r}	.
==	==
!!!AGN: Ballade, verbotene Liebe, Flucht
!! Schlusspause korrigiert.
!!    Vierte und sechste Zeile = refrainartig auf Wortwiederholungen.
!!!ONB: ESAC (Essen Associative Code) Database: BALLADE
!!!AMT: compound duple
!!!AIN: vox
!!!EED: Helmut Schaffrath
!!!EEV: 1.0
!!!source: Deutsche Volkslieder mit ihren Melodien Balladen. Herausgegeben vom Deutschen Volksliedarchiv. Sechster Band. Freiburg/Breisgau 1976.
!!!page: 74
!!!ENC: Anna Maria Matuszewska
!!!EEV: 2025/03/06
*-	*-
